; generated by PrusaSlicer 2.6.1+win64 on 2023-11-11 at 14:03:04 UTC


;
;

;
;
; 

; external perimeters extrusion width = 0.40mm
; perimeters extrusion width = 0.46mm
; infill extrusion width = 0.46mm
; solid infill extrusion width = 0.56mm
; top infill extrusion width = 0.40mm
; support material extrusion width = 0.46mm
; first layer extrusion width = 0.50mm

M73 P0 R54


; Pre-Processed for Cancel-Object support by preprocess_cancellation v0.2.0
; 1 known objects
EXCLUDE_OBJECT_DEFINE NAME=3DBenchy_stl_id_0_copy_0 CENTER=113.380,111.525 POLYGON=[[81.7,96.198],[81.7,126.802],[141.294,126.802],[141.294,96.198]]
;TYPE:Custom
M104 S0 ; Stops PS/SS from sending temp waits separately
M140 S0
M117
PRINT_START BED=60 HOTEND=220
PURGE_LINE

;; If you are passing variables to PRINT_START, comment out above line and uncomment the last 3 lines instead. (I already did this)
;; Guide: https://github.com/AndrewEllis93/Print-Tuning-Guide/blob/main/articles/passing_slicer_variables.md
;; Make sure the variable names match (for example if you use "EXTRUDER" instead of "HOTEND")
G21 ; set units to millimeters
G90 ; use absolute coordinates
M83 ; use relative distances for extrusion
; Filament gcode
M107
;LAYER_CHANGE
;Z:0.26
;HEIGHT:0.26
G1 E-.5 F2400
G1 Z.26 F18000
M204 S3500
G1 X83.294 Y101.465
G1 E.5 F2400
M204 S1000
;TYPE:Skirt/Brim
;WIDTH:0.5
G1 F1800
G1 X84.066 Y100.939 E.04486
G1 X84.852 Y100.555 E.042
G1 X86.138 Y100.174 E.0644
G1 X86.971 Y100.065 E.04034
G1 X111.705 Y98.606 E1.1897
G1 X114.219 Y98.785 E.12102
G1 X116.646 Y99.275 E.11889
G1 X119.227 Y100.159 E.131
G1 X121.63 Y101.377 E.12936
G1 X123.557 Y102.684 E.1118
G1 X125.525 Y104.414 E.12582
G1 X127.254 Y106.406 E.12665
G1 X128.603 Y108.443 E.11731
G1 X129.111 Y109.572 E.05945
G1 X129.386 Y110.805 E.06066
G1 X129.401 Y112.062 E.06036
G1 X129.07 Y113.537 E.07259
G1 X128.648 Y114.48 E.04961
G1 X128.194 Y115.242 E.04259
G1 X126.66 Y117.342 E.12487
G1 X125.092 Y119.006 E.10978
G1 X123.164 Y120.613 E.12052
G1 X120.854 Y122.061 E.13091
G1 X118.82 Y123.008 E.10773
G1 X117.531 Y123.467 E.0657
G1 X116.26 Y123.825 E.0634
G1 X114.186 Y124.219 E.10137
G1 X112.576 Y124.369 E.07764
G1 X111.213 Y124.393 E.06546
G1 X86.841 Y122.924 E1.17238
G1 X85.563 Y122.688 E.0624
G1 X84.144 Y122.1 E.07375
G1 X82.946 Y121.234 E.07098
G1 X82.011 Y120.159 E.06841
G1 X81.565 Y119.422 E.04136
G1 X81.212 Y118.594 E.04322
G1 X80.983 Y117.769 E.04111
G1 X80.861 Y116.927 E.04085
G1 X80.839 Y106.514 E.5
G1 X80.953 Y105.406 E.05348
G1 X81.137 Y104.637 E.03797
G1 X81.479 Y103.756 E.04538
G1 X82.082 Y102.731 E.0571
G1 X82.669 Y102.032 E.04383
G1 X83.25 Y101.505 E.03766
M204 S3500
G1 X83.548 Y101.834 F18000
M204 S1000
G1 F1800
G1 X83.577 Y101.808 E.00187
G1 X84.296 Y101.318 E.04178
G1 X85.01 Y100.97 E.03814
G1 X86.207 Y100.613 E.05998
G1 X86.998 Y100.508 E.03831
G1 X111.692 Y99.05 E1.18778
G1 X114.149 Y99.224 E.11827
G1 X116.521 Y99.701 E.11617
G1 X119.046 Y100.565 E.12814
G1 X121.392 Y101.752 E.12624
G1 X123.294 Y103.042 E.11035
G1 X125.218 Y104.735 E.12306
G1 X126.907 Y106.684 E.12383
G1 X128.223 Y108.674 E.11456
G1 X128.693 Y109.722 E.05515
G1 X128.909 Y110.596 E.04323
G1 X128.977 Y111.772 E.05656
G1 X128.76 Y113.052 E.06234
G1 X128.265 Y114.256 E.06251
G1 X127.267 Y115.828 E.08941
G1 X126.17 Y117.233 E.08559
G1 X124.797 Y118.674 E.09557
G1 X122.908 Y120.25 E.11813
G1 X120.654 Y121.665 E.12779
G1 X119.485 Y122.243 E.06262
G1 X117.658 Y122.959 E.09422
G1 X115.023 Y123.637 E.13064
G1 X112.855 Y123.908 E.10491
G1 X111.536 Y123.952 E.06337
G1 X86.869 Y122.481 E1.18652
G1 X85.67 Y122.257 E.05857
G1 X84.349 Y121.706 E.06873
G1 X83.238 Y120.899 E.06593
G1 X82.369 Y119.896 E.06372
G1 X81.965 Y119.228 E.03748
G1 X81.634 Y118.456 E.04033
G1 X81.42 Y117.686 E.03837
G1 X81.304 Y116.899 E.0382
G1 X81.284 Y106.514 E.49865
G1 X81.392 Y105.473 E.05025
G1 X81.559 Y104.775 E.03446
G1 X81.877 Y103.954 E.04228
G1 X82.447 Y102.985 E.05398
G1 X82.994 Y102.335 E.04079
G1 X83.503 Y101.874 E.03297
M204 S3500
G1 X83.804 Y102.243 F18000
M204 S1000
G1 F1800
G1 X84.313 Y101.828 E.03153
G1 X85.509 Y101.256 E.06366
G1 X87.025 Y100.951 E.07425
G1 X111.679 Y99.494 E1.18586
G1 X114.078 Y99.662 E.11547
G1 X116.396 Y100.127 E.11352
G1 X118.865 Y100.97 E.12527
G1 X121.154 Y102.127 E.12315
G1 X123.031 Y103.4 E.1089
G1 X124.91 Y105.056 E.12026
G1 X126.561 Y106.962 E.12108
G1 X127.844 Y108.904 E.11176
G1 X128.275 Y109.873 E.05092
G1 X128.469 Y110.657 E.03878
G1 X128.533 Y111.74 E.05209
G1 X128.337 Y112.915 E.0572
G1 X127.881 Y114.031 E.05789
G1 X126.491 Y116.132 E.12096
G1 X125.279 Y117.56 E.08993
G1 X123.638 Y119.113 E.10849
G1 X122.131 Y120.254 E.09076
G1 X120.655 Y121.159 E.08313
G1 X119.54 Y121.728 E.06011
G1 X117.284 Y122.614 E.11638
G1 X116.067 Y122.958 E.06073
G1 X114.047 Y123.342 E.09873
G1 X112.553 Y123.481 E.07205
G1 X111.252 Y123.505 E.06248
G1 X86.896 Y122.038 E1.17161
G1 X85.777 Y121.826 E.05469
G1 X84.554 Y121.312 E.0637
G1 X83.529 Y120.563 E.06096
G1 X82.727 Y119.633 E.05897
G1 X82.364 Y119.033 E.03367
G1 X82.057 Y118.318 E.03736
G1 X81.747 Y116.871 E.07106
G1 X81.772 Y105.93 E.52535
G1 X82.058 Y104.678 E.06167
G1 X82.69 Y103.412 E.06794
G1 X83.319 Y102.638 E.04789
G1 X83.757 Y102.281 E.02713
M204 S3500
G1 X84.035 Y102.622 F18000
M204 S1000
G1 F1800
G1 X84.543 Y102.208 E.03147
G1 X85.667 Y101.671 E.05981
G1 X87.052 Y101.395 E.06781
G1 X111.665 Y99.938 E1.1839
G1 X114.008 Y100.101 E.11277
G1 X116.271 Y100.553 E.11081
G1 X118.684 Y101.376 E.12242
G1 X120.916 Y102.502 E.12004
G1 X122.768 Y103.758 E.10745
G1 X124.603 Y105.377 E.1175
G1 X126.214 Y107.24 E.11826
G1 X127.464 Y109.134 E.10896
G1 X127.857 Y110.024 E.04672
G1 X128.029 Y110.719 E.03438
G1 X128.09 Y111.709 E.04763
G1 X127.914 Y112.779 E.05207
G1 X127.498 Y113.807 E.05325
G1 X126.134 Y115.869 E.11871
G1 X124.948 Y117.263 E.08788
G1 X123.342 Y118.781 E.10611
G1 X121.875 Y119.891 E.08833
G1 X120.432 Y120.775 E.08126
G1 X119.34 Y121.331 E.05884
G1 X117.16 Y122.187 E.11246
G1 X115.971 Y122.524 E.05934
G1 X113.977 Y122.903 E.09746
G1 X111.272 Y123.061 E.13011
G1 X86.923 Y121.594 E1.17127
G1 X85.884 Y121.395 E.0508
G1 X84.759 Y120.918 E.05867
G1 X83.82 Y120.228 E.05595
G1 X83.085 Y119.37 E.05425
G1 X82.479 Y118.18 E.06412
G1 X82.191 Y116.843 E.06567
G1 X82.211 Y105.997 E.52079
G1 X82.48 Y104.817 E.05811
G1 X83.055 Y103.666 E.06178
G1 X83.644 Y102.941 E.04485
G1 X83.989 Y102.66 E.02137
M204 S3500
; printing object 3DBenchy.stl id:0 copy 0
EXCLUDE_OBJECT_START NAME=3DBenchy_stl_id_0_copy_0
G1 E-.5 F2400
G1 X113.396 Y110.434 F18000
G1 E.5 F2400
M204 S1000
;TYPE:External perimeter
G1 F1800
G1 X113.313 Y110.75 E.01569
G1 X112.626 Y111.913 E.06486
G1 X112.557 Y112.079 E.00863
G1 X112.534 Y112.201 E.00596
G1 X112.544 Y112.309 E.00521
G1 X112.586 Y112.424 E.00588
G1 X113.268 Y113.559 E.06358
G1 X113.406 Y113.868 E.01625
G1 X113.446 Y114.13 E.01273
G1 X113.415 Y114.376 E.01191
G1 X113.31 Y114.588 E.01136
G1 X113.092 Y114.766 E.01351
G1 X112.861 Y114.842 E.01168
G1 X112.618 Y114.848 E.01167
G1 X112.401 Y114.779 E.01093
G1 X112.224 Y114.649 E.01054
G1 X112.03 Y114.379 E.01596
G1 X111.607 Y113.616 E.04189
G1 X111.357 Y114.124 E.02719
G1 X111.121 Y114.476 E.02035
G1 X110.901 Y114.714 E.01556
G1 X110.635 Y114.834 E.01401
G1 X110.343 Y114.807 E.01408
G1 X110.077 Y114.66 E.01459
G1 X109.921 Y114.477 E.01155
G1 X109.851 Y114.273 E.01036
G1 X109.855 Y114.045 E.01095
G1 X109.994 Y113.659 E.0197
G1 X110.489 Y112.804 E.04744
G1 X110.814 Y112.347 E.02693
G1 X110.845 Y112.257 E.00457
G1 X110.815 Y112.186 E.0037
G1 X110.583 Y111.836 E.02016
G1 X110.119 Y111.02 E.04507
G1 X110.023 Y110.826 E.01039
G1 X109.934 Y110.569 E.01306
G1 X109.919 Y110.272 E.01428
G1 X110.032 Y110.016 E.01344
G1 X110.261 Y109.821 E.01444
G1 X110.555 Y109.73 E.01478
G1 X110.725 Y109.734 E.00817
G1 X110.923 Y109.796 E.00996
G1 X111.105 Y109.922 E.01063
G1 X111.226 Y110.048 E.00839
G1 X111.455 Y110.378 E.01929
G1 X111.689 Y110.835 E.02465
G1 X111.879 Y110.411 E.02231
G1 X112.041 Y110.152 E.01467
G1 X112.229 Y109.951 E.01321
G1 X112.368 Y109.844 E.00842
G1 X112.628 Y109.733 E.01357
G1 X112.912 Y109.754 E.01367
G1 X113.163 Y109.916 E.01434
G1 X113.326 Y110.14 E.0133
G1 X113.382 Y110.375 E.0116
M204 S3500
G1 X113.674 Y110.605 F18000
G1 E-.5 F2400
G1 X118.254 Y109.145 F18000
G1 E.5 F2400
M204 S1000
;TYPE:Perimeter
G1 F1800
G1 X117.934 Y108.943 E.01817
G1 X117.392 Y108.818 E.02671
G1 X116.877 Y108.924 E.02525
G1 X116.519 Y109.118 E.01955
G1 X116.204 Y109.423 E.02105
G1 X116.072 Y109.616 E.01123
G1 X115.808 Y109.286 E.02029
G1 X115.395 Y109.019 E.02361
G1 X114.978 Y108.874 E.0212
G1 X114.502 Y108.836 E.02293
G1 X114.035 Y108.928 E.02285
G1 X113.619 Y109.154 E.02273
G1 X113.204 Y108.885 E.02375
G1 X112.479 Y108.831 E.03491
G1 X111.915 Y109.071 E.02943
G1 X111.689 Y109.246 E.01372
G1 X111.317 Y108.988 E.02174
G1 X110.87 Y108.848 E.02249
G1 X110.429 Y108.839 E.02118
G1 X109.824 Y109.027 E.03042
G1 X109.301 Y109.471 E.03294
G1 X109.022 Y110.107 E.03335
G1 X109.053 Y110.74 E.03043
G1 X109.202 Y111.169 E.02181
G1 X109.334 Y111.437 E.01434
G1 X109.633 Y111.962 E.02901
G1 X109.483 Y112.106 E.00998
G1 X109.205 Y111.932 E.01575
G1 X108.698 Y111.763 E.02566
G1 X108.255 Y111.723 E.02136
G1 X108.25 Y111.073 E.03121
G1 X108.159 Y110.336 E.03566
G1 X108.03 Y109.831 E.02503
G1 X107.897 Y109.472 E.01838
G1 X107.595 Y108.905 E.03085
G1 X107.207 Y108.412 E.03012
G1 X106.897 Y108.13 E.02012
G1 X106.611 Y107.925 E.0169
G1 X106.094 Y107.671 E.02766
G1 X105.61 Y107.535 E.02414
G1 X104.916 Y107.432 E.03369
G1 X103.191 Y107.395 E.08285
G1 X102.714 Y107.444 E.02302
G1 X102.137 Y107.665 E.02967
G1 X101.603 Y108.191 E.03599
G1 X101.35 Y107.917 E.01791
G1 X101.07 Y107.7 E.01701
G1 X100.676 Y107.486 E.02153
G1 X100.343 Y107.371 E.01692
G1 X99.893 Y107.274 E.0221
G1 X99.214 Y107.23 E.03267
G1 X98.774 Y107.259 E.02117
G1 X98.308 Y107.341 E.02272
G1 X97.866 Y107.49 E.0224
G1 X97.454 Y107.703 E.02227
G1 X97.309 Y107.813 E.00874
G1 X97.132 Y107.648 E.01162
G1 X96.711 Y107.463 E.02208
G1 X96.369 Y107.406 E.01665
G1 X93.014 Y107.416 E.1611
G1 X92.278 Y107.368 E.03542
G1 X91.821 Y107.453 E.02232
G1 X91.392 Y107.676 E.02322
G1 X91.174 Y107.91 E.01536
G1 X91.068 Y107.82 E.00668
G1 X90.643 Y107.558 E.02397
G1 X90.075 Y107.345 E.02913
G1 X89.555 Y107.255 E.02534
G1 X89.112 Y107.234 E.0213
G1 X88.75 Y107.245 E.01739
G1 X88.252 Y107.317 E.02416
G1 X87.657 Y107.504 E.02995
G1 X87.322 Y107.666 E.01787
G1 X86.754 Y108.032 E.03245
G1 X86.754 Y106.602 E.06866
G1 X86.787 Y106.39 E.0103
G1 X86.808 Y106.324 E.00333
G1 X86.86 Y106.221 E.00554
G1 X86.886 Y106.183 E.00221
G1 X86.943 Y106.123 E.00397
G1 X86.992 Y106.082 E.00307
G1 X87.047 Y106.049 E.00308
G1 X87.181 Y105.998 E.00688
G1 X87.386 Y105.966 E.00996
G1 X110.712 Y104.543 E1.12211
G1 X111.562 Y104.52 E.04083
G1 X112.397 Y104.544 E.04011
G1 X113.318 Y104.631 E.04442
G1 X114.138 Y104.763 E.03988
G1 X115.016 Y104.961 E.04322
G1 X115.872 Y105.212 E.04283
G1 X116.85 Y105.576 E.05011
G1 X117.513 Y105.872 E.03486
G1 X118.497 Y106.395 E.05351
G1 X119.376 Y106.952 E.04997
G1 X120.027 Y107.431 E.03881
G1 X120.778 Y108.058 E.04698
G1 X121.601 Y108.847 E.05474
G1 X119.448 Y108.841 E.10338
G1 X119.06 Y108.864 E.01866
G1 X118.655 Y108.951 E.01989
G1 X118.308 Y109.119 E.01851
M204 S3500
G1 E-.5 F2400
G1 X122.106 Y112.589 F18000
G1 E.5 F2400
M204 S1000
G1 F1800
G1 X122.543 Y111.974 E.03623
G1 X122.894 Y111.422 E.03141
G1 X123.112 Y110.796 E.03183
G1 X123.487 Y111.414 E.03471
G1 X123.515 Y111.491 E.00393
G1 X123.478 Y111.603 E.00566
G1 X123.244 Y112.003 E.02225
G1 X122.845 Y112.607 E.03476
G1 X122.644 Y112.88 E.01628
G1 X122.392 Y112.697 E.01495
G1 X122.162 Y112.611 E.01179
M204 S3500
G1 E-.5 F2400
G1 X118.258 Y109.764 F18000
G1 E.5 F2400
M204 S1000
G1 F1800
G1 X118.065 Y109.551 E.0138
G1 X117.761 Y109.359 E.01726
G1 X117.386 Y109.272 E.01848
G1 X117.031 Y109.346 E.01741
G1 X116.784 Y109.48 E.01349
G1 X116.545 Y109.711 E.01596
G1 X116.345 Y110.003 E.01699
G1 X116.179 Y110.351 E.01851
G1 X116.135 Y110.477 E.00641
G1 X115.94 Y110.472 E.00937
G1 X115.86 Y110.193 E.01394
G1 X115.728 Y109.897 E.01556
G1 X115.506 Y109.62 E.01705
G1 X115.199 Y109.421 E.01757
G1 X114.886 Y109.312 E.01591
G1 X114.528 Y109.283 E.01725
G1 X114.188 Y109.35 E.01664
G1 X113.897 Y109.508 E.0159
G1 X113.648 Y109.829 E.01951
G1 X113.474 Y109.588 E.01427
G1 X113.058 Y109.32 E.02376
G1 X112.554 Y109.282 E.02427
G1 X112.142 Y109.457 E.02149
G1 X111.93 Y109.622 E.0129
G1 X111.666 Y109.902 E.01848
G1 X111.571 Y109.766 E.00797
G1 X111.395 Y109.582 E.01223
G1 X111.12 Y109.392 E.01605
G1 X110.797 Y109.291 E.01625
G1 X110.492 Y109.285 E.01465
G1 X110.043 Y109.424 E.02257
G1 X109.667 Y109.743 E.02368
G1 X109.471 Y110.19 E.02344
G1 X109.494 Y110.654 E.02231
G1 X109.612 Y110.997 E.01742
G1 X109.727 Y111.229 E.01243
G1 X110.204 Y112.069 E.04638
G1 X110.331 Y112.26 E.01101
G1 X110.115 Y112.563 E.01787
G1 X109.81 Y113.091 E.02928
G1 X109.506 Y112.704 E.02363
G1 X109.285 Y112.506 E.01425
G1 X109.014 Y112.337 E.01534
G1 X108.607 Y112.201 E.0206
G1 X108.237 Y112.168 E.01784
G1 X107.77 Y112.228 E.02261
G1 X107.81 Y111.672 E.02677
G1 X107.806 Y111.102 E.02737
G1 X107.722 Y110.418 E.03309
G1 X107.606 Y109.964 E.0225
G1 X107.491 Y109.654 E.01588
G1 X107.222 Y109.148 E.02752
G1 X106.881 Y108.716 E.02643
G1 X106.617 Y108.476 E.01713
G1 X106.382 Y108.307 E.0139
G1 X105.935 Y108.088 E.0239
G1 X105.517 Y107.971 E.02084
G1 X104.879 Y107.876 E.03097
G1 X103.208 Y107.84 E.08025
G1 X102.818 Y107.88 E.01882
G1 X102.382 Y108.047 E.02242
G1 X102.06 Y108.363 E.02166
G1 X101.932 Y108.66 E.01553
G1 X101.894 Y108.921 E.01266
G1 X101.94 Y109.567 E.0311
G1 X101.937 Y111.7 E.10242
G1 X101.712 Y111.735 E.01093
G1 X101.624 Y111.46 E.01386
G1 X101.42 Y111.077 E.02084
G1 X101.329 Y110.982 E.00632
G1 X101.502 Y110.692 E.01621
G1 X101.621 Y110.26 E.02152
G1 X101.664 Y109.689 E.02749
G1 X101.64 Y109.304 E.01852
G1 X101.508 Y108.857 E.02238
G1 X101.303 Y108.521 E.0189
G1 X101.049 Y108.245 E.01801
G1 X100.826 Y108.074 E.01349
G1 X100.496 Y107.894 E.01805
G1 X100.223 Y107.799 E.01388
G1 X99.831 Y107.716 E.01924
G1 X99.214 Y107.675 E.02969
G1 X98.827 Y107.701 E.01862
G1 X98.418 Y107.772 E.01993
G1 X98.04 Y107.9 E.01916
G1 X97.692 Y108.08 E.01881
G1 X97.408 Y108.296 E.01713
G1 X97.249 Y108.483 E.01179
G1 X97.108 Y108.233 E.01378
G1 X96.885 Y108.025 E.01464
G1 X96.584 Y107.892 E.0158
G1 X96.332 Y107.851 E.01226
G1 X93 Y107.861 E.15999
G1 X92.305 Y107.815 E.03344
G1 X91.967 Y107.877 E.0165
G1 X91.665 Y108.035 E.01637
G1 X91.409 Y108.31 E.01804
G1 X91.26 Y108.623 E.01665
G1 X91.11 Y108.439 E.0114
G1 X90.806 Y108.18 E.01918
G1 X90.447 Y107.959 E.02024
G1 X89.958 Y107.776 E.02507
G1 X89.507 Y107.698 E.02198
G1 X89.108 Y107.678 E.01918
G1 X88.789 Y107.688 E.01532
G1 X88.351 Y107.752 E.02125
G1 X87.821 Y107.918 E.02667
G1 X87.54 Y108.055 E.01501
G1 X87.188 Y108.28 E.02006
G1 X86.953 Y108.477 E.01472
G1 X86.667 Y108.781 E.02004
G1 X86.493 Y109.018 E.01412
G1 X86.309 Y108.958 E.00929
G1 X86.31 Y106.568 E.11476
G1 X86.353 Y106.287 E.01365
G1 X86.396 Y106.155 E.00667
G1 X86.477 Y105.994 E.00865
G1 X86.54 Y105.903 E.00531
G1 X86.638 Y105.798 E.0069
G1 X86.734 Y105.719 E.00597
G1 X86.851 Y105.648 E.00657
G1 X87.067 Y105.567 E.01108
G1 X87.337 Y105.523 E.01314
G1 X110.693 Y104.099 E1.12355
G1 X111.563 Y104.075 E.04179
G1 X112.424 Y104.101 E.04136
G1 X113.374 Y104.19 E.04582
G1 X114.222 Y104.327 E.04125
G1 X115.127 Y104.531 E.04455
G1 X116.012 Y104.79 E.04428
G1 X117.018 Y105.165 E.05155
G1 X117.708 Y105.472 E.03626
G1 X118.721 Y106.01 E.05507
G1 X119.626 Y106.585 E.05148
G1 X120.302 Y107.081 E.04026
G1 X121.074 Y107.727 E.04833
G1 X121.724 Y108.35 E.04323
G1 X122.312 Y108.99 E.04173
G1 X122.973 Y109.813 E.05069
G1 X123.431 Y110.464 E.03822
G1 X123.89 Y111.221 E.04251
G1 X123.94 Y111.36 E.00709
G1 X123.957 Y111.486 E.0061
G1 X123.95 Y111.588 E.00491
G1 X123.886 Y111.785 E.00995
G1 X123.622 Y112.238 E.02518
G1 X123.209 Y112.861 E.03589
G1 X122.811 Y113.402 E.03225
G1 X122.654 Y113.596 E.01198
G1 X122.42 Y113.266 E.01942
G1 X122.18 Y113.092 E.01423
G1 X121.8 Y112.949 E.0195
G1 X121.342 Y112.897 E.02213
G1 X122.174 Y111.726 E.06897
